X:379
T:Weasel in the Grass
R:jig 48
C:Chris Taylor
Z:P Headford
M:6/8
L:1/8
Q:1/8=140
K:G
A3|:B2B A2B|AGG G2d|efg dBG|cAA A2A|
B2B A2B|AGG G2d|efg dBG|1cAF G2A:|2cAF G2g||!
|:fed cBA|BGG G2g|fed cBA|eAA A2g|
fed cBA|BGG G2d|efg dBG|cAF G2g:|2cAF G2F||!
E2E EDE|G2G GFG|A2A ABc|B3 Bcd|
ecA ecA|d2B G2G|A2B c2B|ABG FED|!
E2E EDE|G2G GFG|A2A ABc|B3 Bcd|
e2c A2e|d2B G2g|fed cBA|G3|]

